groups/alkoxy/t-butoxy.svg

<?xml version='1.0' encoding='iso-8859-1'?>
<svg version='1.1' baseProfile='full'
              xmlns='http://www.w3.org/2000/svg'
                      xmlns:rdkit='http://www.rdkit.org/xml'
                      xmlns:xlink='http://www.w3.org/1999/xlink'
                  xml:space='preserve'
width='256px' height='256px' viewBox='0 0 256 256'>
<!-- END OF HEADER -->
<rect style='opacity:1.0;fill:#FFFFFF;stroke:none' width='256.0' height='256.0' x='0.0' y='0.0'> </rect>
<path class='bond-0 atom-0 atom-1' d='M 28.4,128.1 L 69.3,151.7' style='fill:none;fill-rule:evenodd;stroke:#000000;stroke-width:2.0px;stroke-linecap:butt;stroke-linejoin:miter;stroke-opacity:1' />
<path class='bond-1 atom-1 atom-2' d='M 95.9,151.6 L 136.7,128.0' style='fill:none;fill-rule:evenodd;stroke:#000000;stroke-width:2.0px;stroke-linecap:butt;stroke-linejoin:miter;stroke-opacity:1' />
<path class='bond-2 atom-2 atom-3' d='M 136.7,128.0 L 117.4,94.7' style='fill:none;fill-rule:evenodd;stroke:#000000;stroke-width:2.0px;stroke-linecap:butt;stroke-linejoin:miter;stroke-opacity:1' />
<path class='bond-3 atom-2 atom-4' d='M 136.7,128.0 L 155.9,94.7' style='fill:none;fill-rule:evenodd;stroke:#000000;stroke-width:2.0px;stroke-linecap:butt;stroke-linejoin:miter;stroke-opacity:1' />
<path class='bond-4 atom-2 atom-5' d='M 136.7,128.0 L 177.5,151.6' style='fill:none;fill-rule:evenodd;stroke:#000000;stroke-width:2.0px;stroke-linecap:butt;stroke-linejoin:miter;stroke-opacity:1' />
<path class='atom-1' d='M12.8,155.188 C14.8311,156.358 16.3921,153.65 14.361,152.479 C12.3299,151.309 13.8909,148.601 15.922,149.771 C17.9531,150.942 19.5141,148.234 17.4829,147.063 C15.4518,145.892 17.0128,143.184 19.0439,144.355 C21.075,145.526 22.636,142.818 20.6049,141.647 C18.5738,140.476 20.1348,137.768 22.1659,138.939 C24.197,140.11 25.758,137.401 23.7269,136.231 C21.6958,135.06 23.2568,132.352 25.2879,133.523 C27.319,134.693 28.88,131.985 26.8488,130.814 C24.8177,129.644 26.3787,126.936 28.4098,128.106 C30.4409,129.277 32.0019,126.569 29.9708,125.398 C27.9397,124.227 29.5007,121.519 31.5318,122.69 C33.5629,123.861 35.1239,121.153 33.0928,119.982 C31.0617,118.811 32.6227,116.103 34.6538,117.274 C36.6849,118.445 38.2458,115.736 36.2147,114.566 C34.1836,113.395 35.7446,110.687 37.7757,111.858 C39.8068,113.028 41.3678,110.32 39.3367,109.149 C37.3056,107.979 38.8666,105.271 40.8977,106.441 C42.9288,107.612 44.4898,104.904 42.4587,103.733 C40.4276,102.562 41.9885,99.8544 44.0197,101.025' style='fill:none;stroke:#7F7F7F;stroke-width:2.0px;stroke-linecap:butt;stroke-linejoin:miter;stroke-opacity:1' />
<text x='71.3' y='178.1' class='atom-1' style='font-size:37px;font-style:normal;font-weight:normal;fill-opacity:1;stroke:none;font-family:sans-serif;text-anchor:start;fill:#000000' >O</text>
<text x='56.2' y='92.7' class='atom-3' style='font-size:37px;font-style:normal;font-weight:normal;fill-opacity:1;stroke:none;font-family:sans-serif;text-anchor:start;fill:#000000' >H</text>
<text x='82.1' y='107.7' class='atom-3' style='font-size:24px;font-style:normal;font-weight:normal;fill-opacity:1;stroke:none;font-family:sans-serif;text-anchor:start;fill:#000000' >3</text>
<text x='94.1' y='92.7' class='atom-3' style='font-size:37px;font-style:normal;font-weight:normal;fill-opacity:1;stroke:none;font-family:sans-serif;text-anchor:start;fill:#000000' >C</text>
<text x='156.6' y='92.6' class='atom-4' style='font-size:37px;font-style:normal;font-weight:normal;fill-opacity:1;stroke:none;font-family:sans-serif;text-anchor:start;fill:#000000' >C</text>
<text x='182.5' y='92.6' class='atom-4' style='font-size:37px;font-style:normal;font-weight:normal;fill-opacity:1;stroke:none;font-family:sans-serif;text-anchor:start;fill:#000000' >H</text>
<text x='208.4' y='107.6' class='atom-4' style='font-size:24px;font-style:normal;font-weight:normal;fill-opacity:1;stroke:none;font-family:sans-serif;text-anchor:start;fill:#000000' >3</text>
<text x='179.6' y='178.0' class='atom-5' style='font-size:37px;font-style:normal;font-weight:normal;fill-opacity:1;stroke:none;font-family:sans-serif;text-anchor:start;fill:#000000' >C</text>
<text x='205.5' y='178.0' class='atom-5' style='font-size:37px;font-style:normal;font-weight:normal;fill-opacity:1;stroke:none;font-family:sans-serif;text-anchor:start;fill:#000000' >H</text>
<text x='231.4' y='193.0' class='atom-5' style='font-size:24px;font-style:normal;font-weight:normal;fill-opacity:1;stroke:none;font-family:sans-serif;text-anchor:start;fill:#000000' >3</text>
</svg>

<svg height="256" viewBox="0 0 256 256" width="256" xmlns="http://www.w3.org/2000/svg"><path d="m0 0h256v256h-256z" fill="#fff"/><path d="m28.4 128.1 40.9 23.6" fill="none" stroke="#000" stroke-width="2"/><path d="m95.9 151.6 40.8-23.6" fill="none" stroke="#000" stroke-width="2"/><path d="m136.7 128-19.3-33.3" fill="none" stroke="#000" stroke-width="2"/><path d="m136.7 128 19.2-33.3" fill="none" stroke="#000" stroke-width="2"/><path d="m136.7 128 40.8 23.6" fill="none" stroke="#000" stroke-width="2"/><path d="m12.8 155.188c2.031 1.17 3.592-1.538 1.561-2.709-2.031-1.17-.47-3.878 1.561-2.708 2.031 1.171 3.592-1.537 1.561-2.708s-.47-3.879 1.561-2.708 3.592-1.537 1.561-2.708-.47-3.879 1.561-2.708 3.592-1.538 1.561-2.708c-2.031-1.171-.47-3.879 1.561-2.708 2.031 1.17 3.592-1.538 1.561-2.709-2.031-1.17-.47-3.878 1.561-2.708 2.031 1.171 3.592-1.537 1.561-2.708s-.47-3.879 1.561-2.708 3.592-1.537 1.561-2.708-.47-3.879 1.561-2.708 3.592-1.538 1.561-2.708c-2.031-1.171-.47-3.879 1.561-2.708 2.031 1.17 3.592-1.538 1.561-2.709-2.031-1.17-.47-3.878 1.561-2.708 2.031 1.171 3.592-1.537 1.561-2.708s-.47-3.879 1.561-2.708" fill="none" stroke="#7f7f7f" stroke-width="2"/><g font-family="sans-serif"><text font-size="37" x="71.3" y="178.1">O</text><text font-size="37" x="56.2" y="92.7">H</text><text font-size="24" x="82.1" y="107.7">3</text><text font-size="37" x="94.1" y="92.7">C</text><text font-size="37" x="156.6" y="92.6">C</text><text font-size="37" x="182.5" y="92.6">H</text><text font-size="24" x="208.4" y="107.6">3</text><text font-size="37" x="179.6" y="178">C</text><text font-size="37" x="205.5" y="178">H</text><text font-size="24" x="231.4" y="193">3</text></g></svg>
